X:696
T: REGINE GIENG IN GARTE
N: E2123
O: Europa, Mitteleuropa, Schweiz, Kanton Schaffhausen, Schleitheim
R: geistlich, Heiligen - Lied, Legende
M: 3/4
L: 1/16
K: Ab
A4 | G4B4G2E2 | A4c4
A4 | G4B4G2EG | A4z4
A4 | G2F2E2F2 | E4D4 | C4
E4 | F2D2A4G4 | A8

@@@ Tune index: 5380
